X:1
T:Polonäs i Gm efter Fredrik Salling
S:efter Fredrik Salling
B:http://www.smus.se/earkiv/fmk/browselarge.php?lang=sw&katalogid=M+155&bildnr=00014
O:Svärdsjö, Dalarna
B:Fredrik Sallings nothäfte
Z:Nils L
M:3/4
L:1/16
R:Polonäs
K:Gm
D4 G4 B4 | B2AG ^FGAF G2G,2 | d4 g4 d4 | d2cd B2AB B2A2 ::
B2d2 d2c2 c2B2 | A2c2 c2B2 B2A2 | B2d2 d2c2 c2B2 | A2c2 c2B2 B2A2 | 
B2A2 G2B2 d2B2 | A2G^F G4 G,4 :|

